img/svgicons/Vector 1.svg

<svg width="292" height="151" viewBox="0 0 292 151" fill="none" xmlns="http://www.w3.org/2000/svg">
<path d="M164.657 130.891C171.268 150.723 201.287 149.075 217.543 147.873C245.513 145.804 288.486 135.128 289.956 100.81C291.114 73.7883 267.537 54.2516 244.592 45.1349C230.584 39.5693 215.206 36.4326 200.197 35.3099C185.428 34.2051 164.503 31.7744 150.89 38.9488C134.61 47.529 139.615 63.2663 156.045 65.8159C170.764 68.0997 192.958 55.2881 186.976 37.6145C183.07 26.0744 167.67 21.1385 157.198 18.6924C138.941 14.4279 119.781 14.6252 101.28 16.9942C83.4032 19.2833 65.5437 22.7544 48.2133 27.7289C35.0123 31.5181 22.4725 37.5993 9.64111 42.4664" stroke="#FFA21E" stroke-width="3" stroke-linecap="round"/>
<path d="M31.5173 2.13989C30.5926 7.45666 28.3448 12.889 26.1066 17.7626C22.5818 25.4378 18.0626 32.404 11.8488 38.1622C9.21076 40.6069 6.39486 42.8555 3.75723 45.3033C3.40761 45.6277 2.59459 46.1964 2.38019 46.6681C2.15831 47.1563 3.40462 46.3468 3.92783 46.2294C6.4642 45.6605 9.10442 45.5734 11.6904 45.5348C17.2474 45.4519 22.8118 45.7895 28.3245 46.4975C41.9878 48.2523 55.7851 51.5536 68.5632 56.7583C74.5711 59.2054 80.3159 62.3858 85.0877 66.824C86.0013 67.6739 86.8959 68.5882 87.4518 69.7" stroke="#FFA21E" stroke-width="3" stroke-linecap="round"/>
</svg>

<svg xmlns="http://www.w3.org/2000/svg" width="292" height="151" fill="none"><path stroke="#FFA21E" stroke-linecap="round" stroke-width="3" d="M164.657 130.891c6.611 19.832 36.63 18.184 52.886 16.982 27.97-2.069 70.943-12.745 72.413-47.063 1.158-27.022-22.419-46.558-45.364-55.675-14.008-5.566-29.386-8.702-44.395-9.825-4.485-.336-9.539-.794-14.783-1.067m0 0c-12.022-.628-25.045-.29-34.524 4.706-16.28 8.58-11.275 24.317 5.155 26.867 14.719 2.284 36.913-10.528 30.931-28.202a17.466 17.466 0 0 0-1.562-3.371Zm0 0c-5.475-9.163-18.826-13.357-28.216-15.55-18.257-4.265-37.417-4.068-55.918-1.699-17.877 2.29-35.736 5.76-53.067 10.735-13.2 3.79-25.74 9.87-38.572 14.737M31.517 2.14c-.924 5.317-3.172 10.75-5.41 15.623-3.525 7.675-8.044 14.641-14.258 20.4-2.638 2.444-5.454 4.693-8.092 7.14-.35.325-1.162.894-1.377 1.365-.222.488 1.025-.321 1.548-.438 2.536-.57 5.176-.656 7.763-.695 5.556-.083 11.12.255 16.634.963 13.663 1.754 27.46 5.056 40.238 10.26 6.008 2.447 11.753 5.628 16.525 10.066.913.85 1.808 1.764 2.364 2.876"/></svg>
